X:1
T:Höchster, was ich habe
T:Johann Sebastian Bach BWV 39/5 
T:arr. André Papillon
%%score 1 { ( 2 4 ) | 3 }
L:1/8
Q:3/8=50
M:6/8
K:Bb
V:1 treble nm="Flûte" snm="Fl."
V:2 treble nm="Piano" snm="Pia."
V:4 treble 
V:3 bass 
V:1
 f3- f/(a/b/c'/d'/b/) | f/(_a/g/f/e/d/) (e/d/c/e/d/f/) | e3- e/(g/=a/b/c'/a/) | %3
 e/(g/f/e/d/c/) (d/c/B/d/c/e/) | d/=e<Ted/4e/4 f/(c/A/B/c/d/) | =e/f<Tfe/4f/4 g/e/c/d/e/f/ | %6
 g/a<Tag/4a/4 b/g/a/b/c'/a/ | fg=e f/a/c'/a/f/_e/ | (d/f/b/f/d/c/) (B/d/f/d/c/B/) | _a z z z3 | %10
 z/ (g/c'/g/e/d/) (c/e/g/e/d/c/) | c' z z z3 | f3- f/(a/b/c'/d'/b/) | %13
 f/(_a/g/f/e/d/) (e/d/c/e/d/f/) | e3- e/(g/=a/b/c'/a/) | e/(g/f/e/d/c/) (d/c/B/d/c/e/) | %16
 d/=e<Ted/4e/4 f/c/A/B/c/d/ | =e/f<Tfe/4f/4 g/e/c/d/e/f/ | g/a<Tag/4a/4 b/g/a/b/c'/a/ | %19
 fg=e (f/a/c'/a/f/e/) | (f/a/c'/a/f/_e/) d z z | z3 (d/g/b/g/d/c/) | (d/g/b/f/=e/d/) c z z | %23
 z3 z/ (c'/f'/c'/a/g/) | f z z z/ (e/f/d/B/G/) | c z z z/ G/A/c/B/d/ | c3- c/=e/f/g/a/f/ | %27
 c/(_e/d/c/B/A/) B/A/G/B/A/c/ | B3- B/d/=e/f/g/e/ | B/(d/c/B/A/G/) A/F/G/A/B/c/ | %30
 d/=e<Ted/4e/4 f/c/A/B/c/d/ | =e/f<Tfe/4f/4 g/e/c/d/e/f/ | g/a<Tag/4a/4 b/g/a/b/c'/a/ | %33
 fg=e f/a/c'/a/f/e/ | f3- f/a/c'/a/g/f/ | _e/a/c'/e/d/c/ d/f/b/f/e/d/ | c/e/a/e/c/B/ A z z | %37
 z3 z/ d/^f/a/f/d/ | c/e/a/e/c/B/ A z z | z3 z/ d/=e/^f/g/a/ | b3- b/^f/g/a/b/c'/ | %41
 d' z z z/ G/A/B/c/d/ | =e/^f<Tfe/4f/4 g/d/B/c/d/e/ | ^f/g<Tgf/4g/4 a/f/d/=e/f/g/ | %44
 a/b<Tba/4b/4 c'/a/b/c'/d'/b/ | ga^f g/b/d'/b/g/f/ | g z z _A3- | A/(_a/g/f/e/d/) c/e/g/e/c/B/ | %48
 =ATa3/2g/4a/4 b/B/c/d/e/f/ | g z z z/ c'/e'/c'/a/g/ | f/a/c'/a/e/d/ c z z | B3- B/c/d/e/f/d/ | %52
 B3- B/d/e/f/g/a/ | bc'a- aed- | d/e/f/g/_a/f/ d/c/d/e/f/d/ | B/d/e/f/g/=a/ b z z | %56
 z/ d/e/f/g/a/ b/(G/_A/B/c/d/) | (e/g/c'/g/e/d/) (c/=a/c'/a/f/e/) | d z z z/ A/B/c/d/e/ | %59
 f3- f/(a/b/c'/d'/b/) | f/(_a/g/f/e/d/) (e/d/c/e/d/f/) | e3- e/(g/=a/b/c'/a/) | %62
 e/(g/f/e/d/c/) d/(B/c/d/e/f/) | g/a<Tag/4a/4 b/(f/d/e/f/g/) | a/b<Tba/4b/4 c'/(a/f/g/a/b/) | %65
 c'/d'<Td'c'/4d'/4 e'/c'/d'/e'/f'/d'/ | bc'a !fermata!b3 |] %67
V:2
 [DB]2 [EA] [FB]2 z | =BGB c2 z | G3 F2 z | AFA B2 z | GAB c2 z | GFA G2 z | GF=E FED | c B2 A3 | %8
w: ||||||||
 (f3- fd) e | f (e/d/c/B/) (Bg) f | (e3- ec) d | (ed/c/) (B/A/) (Af) e | (d/e/f) d (B3- | %13
w: Höch- * * ster,~|was~ ich _ _ _ ha- * be,~|ist _ _ nur~|dei- * * ne~ _ Ga- * be,~|Höch- * * ster,~ was~|
 Bg) f e2 d | (c/d/e) c (A/B/c/d/e- | ef) e (d/e/f) B | (dc) B c f z | (BA/G/) (A/F/) (=EGB- | %18
w: _ _ ich~ ha- be,~|ist~ _ _ nur~ dei- * * * *|* * ne~ Ga- * * be,~|Höch- * ster,~ was~ ich,~|was~ _ _ ich~ _ ha _ _|
 Bc) =e g c f- | f/ B/ G2 F2 z | (c3- c/d/e) d | (cB/A/) d (BA) G | (B3- Bg) =e | %23
w: _ _ be,~ ist~ nur~ dei-|* ne~ Ga- be,~|Höch- * * * ster,~|was~ _ _ ich~ ha- * be,~|ist~ _ _ nur~|
 (B/c/d) c (AG) F | B A (e- e/c/) (d/g/) =e- | e/ f/ G2 F2 z | [CF]2 [B,=E] [A,F]2 z | GA^F G2 z | %28
w: dei- * * ne~ Ga- * be,~|ist~ nur,~ Höch- * * ster,~ _ dei-|* ne~ Ga- be!~|||
 [B,D]3 [CG]2 z | =ECE F2 z | GAB A2 z | GFA G2 z | GF=E F3 | c B2 A2 z | z A B (ce) d | %35
w: ||||||Wenn~ vor~ dei- * nem~|
 (e/f/g) f d2 z | z (e2- ed) c | (Bc) A ^F2 D | z (e2- ed) c | (BA/B/) (c/A/) (^FG/F/) (=E/D/) | %40
w: An- * * ge- sicht~|ich _ _ schon~|mit~ _ dem~ mei- nen~|dank- * * bar~|wollt~ _ _ er- * schei- * * nen,~ _|
 z g f e (d/c/d- | d) (c/B/) (A/B/) G2 z | =EDC D2 z | CD[B,G] [A,^F]2 z | A2 d c B2 | cec B3 | %46
w: willst~ du~ doch~ kein~ _ _|_ O- * pfer~ _ nicht,~|||||
 z d e (fd) c | (=Bc) d e2 z | z (f2- fe) d | (c/d/e) c (AG) F | z (c2- cf) e | %51
w: Wenn~ vor~ dei- * nem~|An- * ge- sicht~|ich~ _ _ schon~|mit~ _ _ dem~ Mei- * nen~|dank- * * bar~|
 d (e/d/c/B/) (gf) f | z e d c (B/A/) (B- | B/A/G/F/) e d (A/B/) (c/A/) | (B/c/d/e/f) z F _A- | %55
w: wollt'~ er- * * * schei- * nen,~|willst~ du~ doch~ kein~ _ O-|* * * * pfer~ nicht,~ willst~ _ du~ _|doch~ _ _ _ _ kein~ O-|
 A G z z g B | B A e- e (d/B/) _a | z g (c/d/) (e/c/) (A/F/) (d- | d/c/) (A>B) B2 z | %59
w: * pfer,~ doch~ kein~|O pfer,~ willst~ _ du~ _ doch,~|willst~ du~ _ doch~ _ kein~ _ O-|* * pfer~ _ nicht.~|
 [DB]2 [EA] [FB]2 z | =BGB c2 z | G3 F2 z | AFA B2 z | B2 e d2 z | eBd c2 z | c3 B3 | %66
w: |||||||
 B e2 !fermata!d3 |] %67
w: |
V:3
 B,B,,C, D,2 z | D=B,G, C2 z | C,C_B, A,2 z | F,A,F, B,2 z | B,A,G, A,2 z | G,A,F, C2 z | %6
 =E,D,C, D,C,B,, | A,,B,,C, F,G,A, | B,B,,C, D,2 z | D,C,D, E,2 D, | C,CB, A,2 z | F,G,A, D,2 C, | %12
 B,,B,C D2 z | D,=B,,G,, C,CB, | A,CA, F,2 z | F,D,F, B,,2 z | B,A,G, A,2 z | G,F,D, C,2 z | %18
 C,2 z =E,,F,,A,, | D,B,,C, F,,F,G, | A,B,C ^F,2 z | A,^F,D, G,2 z | G,D,F, =E,2 z | %23
 G,=E,C, F,2 z | D,C,F, B,,B,G, | A,B,C F,F,,G,, | A,,A,G, F,2 z | =E,^F,D, G,2 z | %28
 G,,G,F, =E,2 z | C,=E,C, F,2 z | B,A,G, A,2 z | G,A,F, C2 z | =E,D,C, D,C,B,, | %33
 A,,B,,C, F,,A,,C, | F,F,,G,, A,,2 z | C,A,,F,, B,,D,B,, | E,C,A,, ^F,,2 z | G,,E,C, D,2 z | %38
 E,C,A,, ^F,,2 z | G,,C,E, D,C,D, | G,,E,D, C,B,,A,, | B,,C,D, G,,2 z | C,B,,A,, B,,2 z | %43
 A,,B,,G,, D,2 z | DCB, A,DB, | ECD G,B,,D, | G,,B,,G,, D,,F,,D,, | G,,A,,=B,, C,D,E, | %48
 F,C,E, D,2 z | E,C,E, F,2 z | A,F,C, A,,F,,A,, | B,,C,D, E,B,A, | G,G,,F,, E,,C,D, | %53
 G,,E,,F,, ^F,,F,,F,, | G,,D,B,, F,D,B,, | E,,E,F, G,=E,C, | F,,F,C, G,F,B, | E,E,,E, A,,F,,B,, | %58
 E,F,F,, B,,D,F, | B,B,,C, D,2 z | D=B,G, C2 z | C,C_B, A,2 z | F,A,F, B,2 z | E,D,C, D,2 z | %64
 C,D,B,, A,,2 z | A,G,F, G,F,E, | D,E,F, !fermata!B,,3 |] %67
V:4
 x6 | F3 E2 x | E2 D C2 x | C2 E D2 x | DCG F2 x | B, C2 =E2 x | C3 B,3 | FDG F3 | x6 | x6 | x6 | %11
 x6 | x6 | x6 | x6 | x6 | x6 | x6 | x6 | x6 | x6 | x6 | x6 | x6 | x6 | x6 | x6 | C2 C B,2 z | x6 | %29
 G,2 B, A,2 x | D C2 C2 z | B, C2 =E2 x | C3 B,CD | FDG F2 x | x6 | x6 | x6 | x6 | x6 | x6 | x6 | %41
 x6 | x6 | x6 | ^F2 G F G2 | G2 A [DG]3 | x6 | x6 | x6 | x6 | x6 | x6 | x6 | x6 | x6 | x6 | x6 | %57
 x6 | x6 | x6 | F3 E2 x | E2 D C2 x | C2 E D2 x | G F2 F2 x | G F2 F2 x | FED EDG | FGF F3 |] %67

